X:1
T:Canon a 2
T:Stefano Pasino fl. 1675
T:Canon a 2
T:Soprano & Basso in octava
T:(c) Wim Looyestijn - 2108. May be freely copied for non-commercial use.
C:Stefano Pasino
C:fl. 1675
Z:(c) Wim Looyestijn - 2108. May be freely copied for non-commercial use.
%%score 1 2
L:1/8
Q:1/4=120
M:4/4
K:C
V:1 treble nm="S.S. V. Maria"
V:2 bass nm="Demonio"
V:1
 G6 A2 | B4 d4 | G6 A2 | B2 c2 d4 | G4 c4 | B6 A2 | G4 E4 | D4 d2 d2 | c6 B2 | A2 G2 F4 | A4 c4- | %11
w: L'o- prar|ben sol|pia- *||ce, sol|pia _|_ ce à|me e per|ciò _|_ _ _|son con-|
 c2 A2 d2 c2 | B2 A2 G4- | G2 FE D2 d2 | G4 A4 | B2 c2 d2 D2 | G4 c4- | c4 B2 A2 | B8 |] %19
w: ||* * * * tra|te, son|con- * * tra|te, con-|* tra _|te.|
V:2
 z8 | G,6 F,2 | E,4 C,4 | G,6 F,2 | E,2 D,2 C,4 | G,4 D,4 | E,6 F,2 | G,4 B,4 | C4 C,2 C,2 | %9
w: |Il pec-|car sol|pia- *||ce, sol|pia _|_ ce à|me e per|
 D,6 E,2 | F,2 G,2 A,4 | F,4 D,4- | D,2 F,2 C,2 D,2 | E,2 F,2 G,4- | G,2 A,B, C2 C,2 | G,4 F,4 | %16
w: ciò _|_ _ _|son con-|||* * * * tra|te, son|
 E,2 D,2 C,2 C2 | G,8- | G,8 |] %19
w: con- * * tra|te.|_|

